symbols/web/settings_input_svideo/materialsymbolsoutlined/settings_input_svideo_wght200gradN25fill1_24px.svg

<svg xmlns="http://www.w3.org/2000/svg" height="24" width="24"><path d="M12 20.85q-1.825 0-3.438-.687-1.612-.688-2.824-1.9-1.213-1.213-1.9-2.825Q3.15 13.825 3.15 12q0-1.825.7-3.438.7-1.612 1.9-2.812 1.2-1.2 2.812-1.9 1.613-.7 3.438-.7 1.825 0 3.438.7 1.612.7 2.812 1.9 1.2 1.2 1.9 2.812.7 1.613.7 3.438 0 1.825-.7 3.438-.7 1.612-1.9 2.812-1.2 1.2-2.812 1.9-1.613.7-3.438.7ZM7.55 12.5q.4 0 .7-.288.3-.287.3-.712 0-.4-.3-.7-.3-.3-.7-.3-.425 0-.712.287-.288.288-.288.713 0 .4.288.7.287.3.712.3Zm8.9 0q.425 0 .713-.288.287-.287.287-.712 0-.4-.287-.7-.288-.3-.713-.3-.4 0-.7.287-.3.288-.3.713 0 .4.3.7.3.3.7.3Zm-7.425 4.45q.425 0 .713-.287.287-.288.287-.688 0-.425-.287-.713-.288-.287-.713-.287-.4 0-.687.287-.288.288-.288.713 0 .4.288.688.287.287.687.287Zm5.95 0q.4 0 .688-.287.287-.288.287-.688 0-.425-.287-.713-.288-.287-.688-.287-.425 0-.712.287-.288.288-.288.713 0 .4.288.688.287.287.712.287Zm-4.45-8.4h2.95q.425 0 .713-.288.287-.287.287-.712t-.287-.712q-.288-.288-.713-.288h-2.95q-.425 0-.713.288-.287.287-.287.712t.287.712q.288.288.713.288Z"/></svg>

<svg xmlns="http://www.w3.org/2000/svg" height="24" width="24"><path d="M12 20.85Q10.175 20.85 8.562 20.163Q6.95 19.475 5.738 18.263Q4.525 17.05 3.838 15.438Q3.15 13.825 3.15 12Q3.15 10.175 3.85 8.562Q4.55 6.95 5.75 5.75Q6.95 4.55 8.562 3.85Q10.175 3.15 12 3.15Q13.825 3.15 15.438 3.85Q17.05 4.55 18.25 5.75Q19.45 6.95 20.15 8.562Q20.85 10.175 20.85 12Q20.85 13.825 20.15 15.438Q19.45 17.05 18.25 18.25Q17.05 19.45 15.438 20.15Q13.825 20.85 12 20.85ZM7.55 12.5Q7.95 12.5 8.25 12.212Q8.55 11.925 8.55 11.5Q8.55 11.1 8.25 10.8Q7.95 10.5 7.55 10.5Q7.125 10.5 6.838 10.787Q6.55 11.075 6.55 11.5Q6.55 11.9 6.838 12.2Q7.125 12.5 7.55 12.5ZM16.45 12.5Q16.875 12.5 17.163 12.212Q17.45 11.925 17.45 11.5Q17.45 11.1 17.163 10.8Q16.875 10.5 16.45 10.5Q16.05 10.5 15.75 10.787Q15.45 11.075 15.45 11.5Q15.45 11.9 15.75 12.2Q16.05 12.5 16.45 12.5ZM9.025 16.95Q9.45 16.95 9.738 16.663Q10.025 16.375 10.025 15.975Q10.025 15.55 9.738 15.262Q9.45 14.975 9.025 14.975Q8.625 14.975 8.338 15.262Q8.05 15.55 8.05 15.975Q8.05 16.375 8.338 16.663Q8.625 16.95 9.025 16.95ZM14.975 16.95Q15.375 16.95 15.663 16.663Q15.95 16.375 15.95 15.975Q15.95 15.55 15.663 15.262Q15.375 14.975 14.975 14.975Q14.55 14.975 14.263 15.262Q13.975 15.55 13.975 15.975Q13.975 16.375 14.263 16.663Q14.55 16.95 14.975 16.95ZM10.525 8.55H13.475Q13.9 8.55 14.188 8.262Q14.475 7.975 14.475 7.55Q14.475 7.125 14.188 6.838Q13.9 6.55 13.475 6.55H10.525Q10.1 6.55 9.812 6.838Q9.525 7.125 9.525 7.55Q9.525 7.975 9.812 8.262Q10.1 8.55 10.525 8.55Z"/></svg>
